app/images/icons/play.svg

<?xml version="1.0" encoding="UTF-8" standalone="no"?>
<svg width="48px" height="48px" viewBox="0 0 48 48" version="1.1" xmlns="http://www.w3.org/2000/svg" xmlns:xlink="http://www.w3.org/1999/xlink">
    <!-- Generator: Sketch 47.1 (45422) - http://www.bohemiancoding.com/sketch -->
    <title>Watch_video icon</title>
    <desc>Created with Sketch.</desc>
    <defs></defs>
    <g id="Design" stroke="none" stroke-width="1" fill="none" fill-rule="evenodd">
        <g id="Watch_video-icon" fill="#FFFFFF">
            <path d="M24,45.6 C35.9293506,45.6 45.6,35.9293506 45.6,24 C45.6,12.0706494 35.9293506,2.4 24,2.4 C12.0706494,2.4 2.4,12.0706494 2.4,24 C2.4,35.9293506 12.0706494,45.6 24,45.6 Z M24,48 C10.745166,48 0,37.254834 0,24 C0,10.745166 10.745166,0 24,0 C37.254834,0 48,10.745166 48,24 C48,37.254834 37.254834,48 24,48 Z" id="Oval-3" fill-rule="nonzero"></path>
            <path d="M35.082427,25.2794285 L18.3770287,34.5602054 C17.6045747,34.9893465 16.6304895,34.7110364 16.2013484,33.9385824 C16.0692968,33.7008896 16,33.4334645 16,33.1615537 L16,14.6 C16,13.7163444 16.7163444,13 17.6,13 C17.8719108,13 18.1393359,13.0692968 18.3770287,13.2013484 L35.082427,22.4821252 C35.854881,22.9112663 36.1331911,23.8853516 35.70405,24.6578056 C35.5589477,24.9189897 35.3436111,25.1343262 35.082427,25.2794285 Z" id="Triangle"></path>
        </g>
    </g>
</svg>

<svg width="48" height="48" xmlns="http://www.w3.org/2000/svg"><g fill="#FFF" fill-rule="evenodd"><path d="M24 45.6c11.93 0 21.6-9.67 21.6-21.6 0-11.93-9.67-21.6-21.6-21.6C12.07 2.4 2.4 12.07 2.4 24c0 11.93 9.67 21.6 21.6 21.6zm0 2.4C10.745 48 0 37.255 0 24S10.745 0 24 0s24 10.745 24 24-10.745 24-24 24z" fill-rule="nonzero"/><path d="M35.082 25.28l-16.705 9.28A1.6 1.6 0 0 1 16 33.162V14.6a1.6 1.6 0 0 1 2.377-1.399l16.705 9.281a1.6 1.6 0 0 1 0 2.797z"/></g></svg>
